app/images/ben-05-time.svg

<?xml version="1.0" encoding="UTF-8" standalone="no"?>
<svg width="93px" height="103px" viewBox="0 0 93 103" version="1.1" xmlns="http://www.w3.org/2000/svg" xmlns:xlink="http://www.w3.org/1999/xlink">
    <!-- Generator: Sketch 40 (33762) - http://www.bohemiancoding.com/sketch -->
    <title>ben-05-time</title>
    <desc>Created with Sketch.</desc>
    <defs></defs>
    <g id="Page-1" stroke="none" stroke-width="1" fill="none" fill-rule="evenodd">
        <g id="ben-05-time" fill="#000000">
            <path d="M46.2414545,10.1675 C58.9745455,10.1675 70.5992727,15.37375 78.8814545,23.804375 C87.2945455,32.235 92.4829091,43.763125 92.4829091,56.529375 C92.4829091,69.295625 87.2945455,80.950625 78.8814545,89.254375 C70.4770909,97.685 58.9745455,102.89125 46.2414545,102.89125 C33.5083636,102.89125 21.8836364,97.685 13.6014545,89.254375 C5.19272727,80.828125 0,69.295625 0,56.529375 C0,43.763125 5.19272727,32.108125 13.6014545,23.804375 C22.0058182,15.37375 33.5083636,10.1675 46.2414545,10.1675 L46.2414545,10.1675 Z M75.0501818,27.645625 C67.632,20.208125 57.4952727,15.61875 46.2414545,15.61875 C34.9876364,15.61875 24.8509091,20.208125 17.4327273,27.645625 C10.0145455,35.083125 5.43709091,45.24625 5.43709091,56.529375 C5.43166792,67.3763315 9.75053734,77.7755418 17.4327273,85.413125 C24.8509091,92.855 34.9876364,97.44 46.2414545,97.44 C57.4952727,97.44 67.632,92.855 75.0501818,85.413125 C82.7319609,77.7752647 87.0507556,67.3762343 87.0458182,56.529375 C87.0497849,45.68271 82.7311395,35.2840391 75.0501818,27.645625 L75.0501818,27.645625 Z" id="Shape"></path>
            <path d="M45.7483636,28.0175 C45.7625627,26.5156989 46.9733724,25.301736 48.4712727,25.2875 C49.9674687,25.3041015 51.1756594,26.517383 51.1898182,28.0175 L51.1898182,58.51125 C51.1898182,59.99875 49.9549091,61.236875 48.4712727,61.236875 L27.3250909,61.236875 C25.8414545,61.236875 24.6065455,59.99875 24.6065455,58.51125 C24.6065455,57.02375 25.8414545,55.785625 27.3250909,55.785625 L45.7483636,55.785625 L45.7483636,28.0175 L45.7483636,28.0175 Z M39.1941818,7.94818756e-19 L53.4152727,7.94818756e-19 C54.9114687,0.0166015479 56.1196594,1.229883 56.1338182,2.73 L56.1338182,9.30125 C54.4058182,8.929375 52.5469091,8.68 50.6923636,8.430625 L50.6923636,5.455625 L41.9127273,5.455625 L41.9127273,8.430625 C40.0581818,8.553125 38.2036364,8.8025 36.4712727,9.174375 L36.4712727,2.73 C36.4854718,1.22819892 37.6962815,0.0142360377 39.1941818,-3.05210402e-16 L39.1941818,7.94818756e-19 Z M13.4749091,11.7775 L25.0996364,5.08375 C26.4610909,4.34 28.0669091,4.711875 28.8087273,6.076875 L31.4050909,10.661875 C29.6727273,11.283125 27.9403636,11.9 26.2123636,12.64375 L25.3483636,11.15625 L18.4232727,15.124375 L19.1650909,16.489375 C17.6238197,17.5257999 16.1381213,18.6429755 14.7141818,19.83625 L12.24,15.49625 C11.4981818,14.13125 11.8690909,12.52125 13.2305455,11.7775 L13.4749091,11.7775 L13.4749091,11.7775 Z M74.064,15.124375 L67.1389091,11.15625 L66.2749091,12.64375 C64.6043626,11.8339467 62.8669516,11.1708402 61.0821818,10.661875 L63.6829091,6.076875 C64.0365482,5.44470002 64.6299846,4.98263419 65.3284398,4.79561984 C66.0268949,4.60860549 66.7710875,4.71251539 67.392,5.08375 L79.0167273,11.7775 C80.3738182,12.52125 80.7447273,14.258125 80.0072727,15.49625 L77.4065455,19.95875 C76.0489641,18.7382391 74.6036032,17.6195907 73.0821818,16.611875 L73.9461818,15.124375 L74.064,15.124375 L74.064,15.124375 Z" id="Shape"></path>
        </g>
    </g>
</svg>

<?xml version="1.0" encoding="utf-8"?>
<!-- Generator: Adobe Illustrator 16.0.0, SVG Export Plug-In . SVG Version: 6.00 Build 0)  -->
<!DOCTYPE svg PUBLIC "-//W3C//DTD SVG 1.1//EN" "http://www.w3.org/Graphics/SVG/1.1/DTD/svg11.dtd">
<svg version="1.1" id="Layer_1" xmlns="http://www.w3.org/2000/svg" xmlns:xlink="http://www.w3.org/1999/xlink" x="0px" y="0px"
	 width="93px" height="103px" viewBox="0 0 93 103" enable-background="new 0 0 93 103" xml:space="preserve">
<title>ben-05-time</title>
<desc>Created with Sketch.</desc>
<g id="Page-1">
	<g id="ben-05-time">
		<path id="Shape" fill="#333366" d="M46.241,10.167c12.733,0,24.358,5.206,32.64,13.637c8.414,8.431,13.602,19.959,13.602,32.725
			c0,12.766-5.188,24.422-13.602,32.725c-8.404,8.432-19.906,13.637-32.64,13.637c-12.733,0-24.357-5.205-32.64-13.637
			C5.193,80.828,0,69.295,0,56.529c0-12.766,5.193-24.421,13.602-32.725C22.006,15.374,33.508,10.167,46.241,10.167L46.241,10.167z
			 M75.051,27.646c-7.419-7.438-17.556-12.027-28.81-12.027c-11.253,0-21.39,4.589-28.809,12.027
			C10.015,35.083,5.437,45.246,5.437,56.529C5.432,67.377,9.75,77.775,17.433,85.413c7.418,7.442,17.555,12.026,28.809,12.026
			c11.254,0,21.391-4.584,28.81-12.026c7.682-7.638,12-18.037,11.995-28.884C87.05,45.683,82.73,35.284,75.051,27.646L75.051,27.646
			z"/>
		<path id="Shape_1_" fill="#333366" d="M45.749,28.018c0.014-1.502,1.225-2.716,2.722-2.73c1.496,0.017,2.705,1.23,2.719,2.73
			v30.494c0,1.486-1.234,2.725-2.719,2.725H27.325c-1.484,0-2.719-1.238-2.719-2.725c0-1.488,1.235-2.727,2.719-2.727h18.423V28.018
			L45.749,28.018z M39.194,0h14.221c1.497,0.017,2.704,1.23,2.719,2.73v6.571c-1.728-0.372-3.587-0.621-5.441-0.871V5.456h-8.78
			v2.975c-1.854,0.123-3.709,0.372-5.441,0.744V2.73C36.485,1.228,37.696,0.014,39.194,0L39.194,0z M13.475,11.777L25.1,5.084
			c1.361-0.744,2.967-0.372,3.709,0.993l2.597,4.585c-1.732,0.621-3.465,1.238-5.193,1.981l-0.864-1.487l-6.925,3.968l0.742,1.365
			c-1.541,1.037-3.027,2.154-4.451,3.347l-2.474-4.34c-0.742-1.365-0.371-2.975,0.99-3.719H13.475L13.475,11.777z M74.064,15.125
			l-6.926-3.968l-0.863,1.487c-1.671-0.81-3.408-1.473-5.193-1.981l2.602-4.585c0.354-0.632,0.946-1.094,1.645-1.281
			c0.699-0.187,1.443-0.083,2.064,0.289l11.624,6.693c1.357,0.744,1.728,2.481,0.991,3.719l-2.602,4.463
			c-1.357-1.221-2.803-2.339-4.324-3.347l0.864-1.487H74.064L74.064,15.125z"/>
	</g>
</g>
</svg>
